X: 411
T: The Enniskillen Dragoons
N:"Moderate" "collected by F.O'Neill"
N:Irish title: draguni.de inis-ce.tlann
B:O'Neill's 411
Z:Transcribed by henrik.norbeck@mailbox.swipnet.se
M:2/4
L:1/8
K:D
(A/F/) | D>D E>F | G>A c>B | (3AGE D>D | D3 A |
d>d B>d | c>A B>G | (3EDE c>B | A3 A |
d>d B>d | c>A B>G | (3EDE c>B | A3 G/E/ |
D>D E>F | G>A c>B | (3AGE D>D | D3 ||


